X: 218
T:Crested Hens
T:Cockscomb Bouree
T:Les Poules Huppees
F:http://blackrosetheband.googlepages.com/ABCTUNES.ABC May 2009
M:3/4
L:1/8
R:waltz
K:Dmaj
(GFD)|  (V)E3G FE | B4 B-c | dc Be dc | (V)(dc) (U)B-A (V)G(U)F |
|  E3G FE | B4 B-c | dc BA GA | B3 (GFD) |
|  E3G FE | B4 B-c | dc Be dc | d-c B-A GF |
|  E3G FE | B4 B-c | dc BA GA | B4    e-f ||
|| g-B Bg gB | (U)=c3 (V)c(U)e-f | gf ag fe | ^d2e2 -f2 |
|  g-B Bg gB | (U)=c3 c e-f | gf ag 3)(fed) |  (U)e3 (V)B  (U)e-f |
|  g-B Bg gB | (U)=c4 (V)e(U)f | gf ag fe | ^d2e2 -f2 |
|  g-B Bg gB | =c4ef | gf ag fd |  e3 (GFD) ||

